svg/Outline/camera-reverse.svg

<svg viewBox="0 0 24 24" xmlns="http://www.w3.org/2000/svg" width="24" height="24"><path d="M7.33 8.86q.59-.18 1.18 0l.19.08q.27.13.46.3l.53.5.6.62a.9.9 0 0 1-1.27 1.27l-.24-.24c0 1.28.22 1.88.53 2.37q.53.8 1.38 1.18c.55.24 1.16.3 1.74.18a.9.9 0 0 1 .37 1.76c-.95.2-1.94.1-2.83-.29a5 5 0 0 1-2.18-1.86c-.54-.85-.8-1.8-.8-3.27l-.18.17-.07.06a.9.9 0 0 1-1.26-1.26l.06-.07.61-.61q.29-.3.53-.5.25-.24.65-.39M11.22 7c.95-.2 1.94-.1 2.83.28a5 5 0 0 1 2.18 1.86c.54.85.8 1.8.8 3.27l.18-.17.07-.06a.9.9 0 0 1 1.26 1.26l-.06.07-.6.61q-.3.3-.54.5-.25.24-.65.4c-.38.12-.8.12-1.17 0l-.2-.09a2 2 0 0 1-.46-.3l-.52-.5-.62-.62A.9.9 0 0 1 15 12.24l.24.24c0-1.28-.22-1.88-.53-2.37a3 3 0 0 0-1.37-1.18 3 3 0 0 0-1.75-.18.9.9 0 0 1-.37-1.76"/><path fill-rule="evenodd" d="M14.25 2c.49 0 .79.03 1.05.14a2 2 0 0 1 .8.58c.24.29.38.68.64 1.47l.11.34q.05.17.1.23.1.18.3.23l.25.01c1.4 0 2.1 0 2.67.17a4 4 0 0 1 2.66 2.67c.18.57.18 1.26.18 2.66v4.58c-.03 1.3-.11 2.1-.44 2.74l-.15.27a4 4 0 0 1-1.6 1.47l-.16.08c-.61.26-1.38.33-2.57.35l-1.48.01H5.92a7 7 0 0 1-2.57-.36l-.16-.08a4 4 0 0 1-1.6-1.47l-.15-.27c-.33-.65-.4-1.44-.43-2.74V10.5c0-1.22 0-1.9.11-2.44l.06-.21A4 4 0 0 1 3.05 5.5v-.6a.9.9 0 0 1 .9-.8h.71c.5 0 .9.4.9.9h1.09l.1-.01A.5.5 0 0 0 7 4.84l.06-.08.04-.09.05-.14.11-.34c.26-.79.4-1.18.64-1.47a2 2 0 0 1 .8-.58c.27-.1.57-.13 1.05-.14zM10.3 3.8l-.96.02-.05.04-.04.1-.28.8-.11.34c-.02.03-.1.34-.27.61a2.3 2.3 0 0 1-1.43 1.03c-.3.07-.62.06-.66.06-1.52 0-1.88.02-2.13.1A2.2 2.2 0 0 0 2.9 8.36c-.07.24-.1.6-.1 2.12v3.11c0 1.15 0 1.9.05 2.48.05.56.13.79.2.92q.31.63.96.96c.13.07.36.15.91.2.58.04 1.34.04 2.49.04h9.2c1.15 0 1.9 0 2.48-.05.55-.04.79-.12.92-.19q.63-.33.96-.96c.06-.13.14-.36.19-.92.05-.58.05-1.33.05-2.48v-3.1c0-1.53-.02-1.9-.1-2.14a2.2 2.2 0 0 0-1.46-1.46 9 9 0 0 0-2.15-.1c-.03 0-.35.01-.66-.06a2.3 2.3 0 0 1-1.42-1.03c-.17-.27-.26-.58-.28-.61l-.11-.34-.28-.8-.05-.1-.04-.04h-.1c-.18-.02-.42-.02-.86-.02z" clip-rule="evenodd"/></svg>

<svg viewBox="0 0 24 24" xmlns="http://www.w3.org/2000/svg" width="24" height="24"><path d="M7.33 8.86Q7.92 8.68 8.51 8.86L8.7 8.94Q8.97 9.07 9.16 9.24L10.29 10.36A.9 .9 0 0 1 9.02 11.63L8.78 11.39C8.78 12.67 9 13.27 9.31 13.76Q9.84 14.56 10.69 14.94C11.24 15.18 11.85 15.24 12.43 15.12A.9 .9 0 0 1 12.8 16.88C11.85 17.08 10.86 16.98 9.97 16.59A5 5 0 0 1 7.79 14.73C7.25 13.88 6.99 12.93 6.99 11.46L6.74 11.69A.9 .9 0 0 1 5.48 10.43L6.15 9.75Q6.44 9.45 6.68 9.25Q6.93 9.01 7.33 8.86M11.22 7C12.17 6.8 13.16 6.9 14.05 7.28A5 5 0 0 1 16.23 9.14C16.77 9.99 17.03 10.94 17.03 12.41L17.28 12.18A.9 .9 0 0 1 18.54 13.44L17.88 14.12Q17.58 14.42 17.34 14.62Q17.09 14.86 16.69 15.02C16.31 15.14 15.89 15.14 15.52 15.02L15.32 14.93A2 2 0 0 1 14.86 14.63L13.72 13.51A.9 .9 0 0 1 15 12.24L15.24 12.48C15.24 11.2 15.02 10.6 14.71 10.11A3 3 0 0 0 13.34 8.93A3 3 0 0 0 11.59 8.75A.9 .9 0 0 1 11.22 6.99"/><path fill-rule="evenodd" d="M14.25 2C14.74 2 15.04 2.03 15.3 2.14A2 2 0 0 1 16.1 2.72C16.34 3.01 16.48 3.4 16.74 4.19L16.85 4.53Q16.9 4.7 16.95 4.76Q17.05 4.94 17.25 4.99L17.5 5C18.9 5 19.6 5 20.17 5.17A4 4 0 0 1 22.83 7.84C23.01 8.41 23.01 9.1 23.01 10.5L23.01 15.08C22.98 16.38 22.9 17.18 22.57 17.82L22.42 18.09A4 4 0 0 1 20.82 19.56L20.66 19.64C20.05 19.9 19.28 19.97 18.09 19.99L5.92 20A7 7 0 0 1 3.35 19.64L3.19 19.56A4 4 0 0 1 1.59 18.09L1.44 17.82C1.11 17.17 1.04 16.38 1.01 15.08L1.01 10.5C1.01 9.28 1.01 8.6 1.12 8.06L1.18 7.85A4 4 0 0 1 3.05 5.5L3.05 4.9A.9 .9 0 0 1 3.95 4.1L4.66 4.1C5.16 4.1 5.56 4.5 5.56 5L6.75 4.99A.5 .5 0 0 0 7 4.84L7.15 4.53L7.26 4.19C7.52 3.4 7.66 3.01 7.9 2.72A2 2 0 0 1 8.7 2.14C8.97 2.04 9.27 2.01 9.75 2ZM10.3 3.8L9.34 3.82L9.29 3.86L8.86 5.1C8.84 5.13 8.76 5.44 8.59 5.71A2.3 2.3 0 0 1 7.16 6.74C6.86 6.81 6.54 6.8 6.5 6.8C4.98 6.8 4.62 6.82 4.37 6.9A2.2 2.2 0 0 0 2.9 8.36C2.83 8.6 2.8 8.96 2.8 10.48L2.8 13.59C2.8 14.74 2.8 15.49 2.85 16.07C2.9 16.63 2.98 16.86 3.05 16.99Q3.36 17.62 4.01 17.95C4.14 18.02 4.37 18.1 4.92 18.15C5.5 18.19 6.26 18.19 7.41 18.19L16.61 18.19C17.76 18.19 18.51 18.19 19.09 18.14C19.64 18.1 19.88 18.02 20.01 17.95Q20.64 17.62 20.97 16.99C21.03 16.86 21.11 16.63 21.16 16.07C21.21 15.49 21.21 14.74 21.21 13.59L21.21 10.49C21.21 8.96 21.19 8.59 21.11 8.35A2.2 2.2 0 0 0 19.65 6.89A9 9 0 0 0 17.5 6.79C17.47 6.79 17.15 6.8 16.84 6.73A2.3 2.3 0 0 1 15.42 5.7C15.25 5.43 15.16 5.12 15.14 5.09L14.7 3.85L14.66 3.81L14.56 3.81C14.38 3.79 14.14 3.79 13.7 3.79Z" clip-rule="evenodd"/></svg>
